;FLAVOR:Marlin
;TIME:2836
;Filament used: 3.16914m
;Layer height: 0.2
;MINX:88.828
;MINY:63.811
;MINZ:0.3
;MAXX:166.863
;MAXY:141.847
;MAXZ:8.1
;MKSPREVIEWPROCESSED
; Postprocessed by [MKS WiFi plugin](https://github.com/Jeredian/mks-wifi-plugin)
; simage=50
; gimage=200
;LINEARADVANCEPROCESSED
; Postprocessed by [ArcWelder](https://github.com/FormerLurker/ArcWelderLib)
; Copyright(C) 2021 - Brad Hochgesang
; Version: 1.2.0, Branch: HEAD, BuildDate: 2021-11-21T20:25:43Z
; resolution=0.05mm
; path_tolerance=5.0%
; max_radius=9999.00mm
; g90_influences_extruder=True
; firmware_compensation=True
; mm_per_arc_segment=1.00mm
; min_arc_segments=12
; allow_dynamic_precision=True
; default_xyz_precision=3
; default_e_precision=5
; extrusion_rate_variance_percent=5.0%

;Generated with Cura_SteamEngine 5.2.0
M82 ;absolute extrusion mode
; 
M220 S100 ;   100%
M221 S100 ;   100%
M107 ;  
G90 ;   
M82 ;   

;
M104 S[first_layer_temperature]
M140 S95 T0 ; Heat bed
M134 T0 ; Stabilize bed temperature
M109 S235 T0;  Heat extruder
M190 S[first_layer_bed_temperature]
M133 T0 ; Stabilize extruder temperature


;
G28 ;
G92 E0 ;   0
G0 Z0.25 F3600 ;   0.25  



;   
G1 E4 F500 ;  4
G1 X5 Y5 F3600 ;      X5 Y5
G0 Z5 ;     5
G1 E3 F500 ;  1
G92 E0 ;   
;     
G92 E0
G92 E0
G1 F600 E-3
;LAYER_COUNT:35
M900 K0.000000 T0 ;added by LinearAdvanceSettingPlugin
;LAYER:0
M107
G1 F600 Z1.3
G0 F6000 X93.143 Y103.239 Z1.3
;TYPE:SKIRT
G1 F600 Z0.3
G1 F600 E0
G1 F3600 X93.548 Y102.889 E0.02043
G1 X93.993 Y102.594 E0.04081
G1 X94.382 Y102.395 E0.05748
G1 X94.928 Y102.193 E0.0797
G1 X95.508 Y102.07 E0.10233
G1 X96.041 Y102.026 E0.12274
G1 X96.479 Y102.041 E0.13947
G1 X96.998 Y102.118 E0.15949
G1 X97.562 Y102.275 E0.18184
G1 X98.085 Y102.509 E0.20371
G1 X98.541 Y102.789 E0.22413
G1 X110.307 Y91.023 E0.8592
G1 X110.028 Y90.566 E0.87963
G1 X109.792 Y90.036 E0.90177
G1 X109.636 Y89.477 E0.92392
G1 X109.559 Y88.949 E0.94429
G1 X109.545 Y88.512 E0.96098
G1 X109.587 Y87.992 E0.98089
G3 X110.161 Y86.394 I4.056 J0.555 E1.04610
G3 X111.672 Y84.915 I3.616 J2.183 E1.12762
G3 X113.706 Y84.349 I2.100 J3.609 E1.20901
G3 X115.679 Y84.789 I0.093 J4.228 E1.28686
G1 X116.225 Y85.105 E1.31094
G1 X127.978 Y73.352 E1.94531
G3 X127.236 Y71.270 I3.597 J-2.455 E2.03055
G3 X127.553 Y69.276 I4.232 J-0.349 E2.10830
G3 X128.867 Y67.559 I3.936 J1.651 E2.19168
G3 X130.854 Y66.715 I2.624 J3.417 E2.27492
G3 X132.867 Y66.906 I0.615 J4.222 E2.35279
G3 X133.904 Y67.426 I-1.582 J4.449 E2.39715
G1 X137.305 Y64.025 E2.58072
G1 X137.503 Y63.882 E2.59004
G1 X137.737 Y63.811 E2.59938
G1 X137.981 Y63.819 E2.60869
G1 X138.209 Y63.905 E2.61799
G1 X138.365 Y64.025 E2.6255
G1 X166.649 Y92.31 E4.15216
G1 X166.792 Y92.508 E4.16148
G1 X166.863 Y92.742 E4.17081
G1 X166.855 Y92.986 E4.18013
G1 X166.747 Y93.272 E4.1918
G1 X163.248 Y96.77 E4.38063
G3 X163.990 Y98.851 I-3.616 J2.462 E4.46583
G3 X163.656 Y100.893 I-4.273 J0.349 E4.54553
G3 X162.397 Y102.531 I-3.913 J-1.704 E4.62511
G3 X160.419 Y103.403 I-2.665 J-3.367 E4.70846
G3 X158.360 Y103.218 I-0.655 J-4.260 E4.78809
G3 X157.323 Y102.695 I1.527 J-4.318 E4.83250
G1 X145.57 Y114.448 E5.46687
G3 X146.312 Y116.527 I-3.618 J2.463 E5.55199
G3 X145.981 Y118.567 I-4.285 J0.352 E5.63159
G3 X144.685 Y120.240 I-3.991 J-1.753 E5.71311
G3 X142.693 Y121.085 I-2.628 J-3.426 E5.79654
G3 X140.586 Y120.860 I-0.618 J-4.193 E5.87824
G3 X139.645 Y120.373 I1.587 J-4.219 E5.91875
G1 X127.893 Y132.126 E6.55309
G3 X128.634 Y134.204 I-3.529 J2.430 E6.63816
G3 X128.303 Y136.246 I-4.273 J0.355 E6.71784
G3 X126.967 Y137.944 I-3.935 J-1.721 E6.80115
G3 X125.015 Y138.763 I-2.567 J-3.383 E6.88276
G3 X122.914 Y138.540 I-0.615 J-4.216 E6.96421
G3 X121.967 Y138.052 I1.687 J-4.437 E7.00493
G1 X118.566 Y141.453 E7.1885
G1 X118.368 Y141.596 E7.19782
G1 X118.134 Y141.667 E7.20715
G1 X117.89 Y141.659 E7.21647
G1 X117.662 Y141.573 E7.22577
G1 X117.506 Y141.453 E7.23328
G1 X89.222 Y113.168 E8.75994
G1 X89.079 Y112.97 E8.76926
G1 X89.008 Y112.736 E8.77859
G1 X89.016 Y112.492 E8.78791
G1 X89.124 Y112.206 E8.79958
G1 X92.623 Y108.707 E8.98843
G3 X91.890 Y106.720 I3.562 J-2.443 E9.07003
G3 X92.213 Y104.588 I4.259 J-0.445 E9.15316
G3 X92.685 Y103.780 I3.462 J1.480 E9.18894
G0 F3240 X92.789 Y103.631
G0 X93.143 Y103.239
G0 F6000 X93.303 Y103.503
G1 F3600 X93.717 Y103.137 E9.21003
G3 X95.536 Y102.369 I2.387 J3.115 E9.28615
G3 X97.481 Y102.568 I0.584 J3.901 E9.36151
G3 X98.560 Y103.194 I-0.934 J2.853 E9.40938
G1 X110.713 Y91.041 E10.06534
G3 X109.932 Y89.430 I2.764 J-2.335 E10.13436
G3 X109.996 Y87.513 I3.866 J-0.831 E10.20826
G3 X111.019 Y85.785 I3.813 J1.091 E10.28569
G3 X112.716 Y84.798 I2.775 J2.819 E10.36135
G3 X114.685 Y84.749 I1.080 J3.805 E10.43728
G3 X116.238 Y85.516 I-0.774 J3.523 E10.50401
G1 X128.391 Y73.363 E11.15997
G3 X127.623 Y71.810 I2.742 J-2.322 E11.22674
G3 X127.674 Y69.836 I3.846 J-0.888 E11.30286
G3 X128.698 Y68.107 I3.796 J1.081 E11.38035
G3 X130.393 Y67.120 I2.778 J2.823 E11.45595
G3 X132.305 Y67.058 I1.081 J3.812 E11.52964
G3 X133.916 Y67.838 I-0.719 J3.540 E11.59864
G1 X137.517 Y64.237 E11.79301
G1 X137.675 Y64.134 E11.80021
G1 X137.862 Y64.106 E11.80742
G1 X138.083 Y64.167 E11.81617
G1 X166.437 Y92.522 E13.3466
G1 X166.54 Y92.68 E13.3538
G1 X166.568 Y92.867 E13.36102
G1 X166.507 Y93.088 E13.36977
G1 X162.835 Y96.759 E13.56794
G3 X163.603 Y98.313 I-2.752 J2.327 E13.63473
G3 X163.552 Y100.287 I-3.847 J0.888 E13.71086
G3 X162.529 Y102.015 I-3.811 J-1.089 E13.78829
G3 X160.886 Y102.987 I-2.774 J-2.814 E13.86184
G3 X158.866 Y103.051 I-1.130 J-3.767 E13.93979
G3 X157.310 Y102.284 I0.755 J-3.493 E14.00664
G1 X145.157 Y114.437 E14.6626
G3 X145.925 Y115.991 I-2.738 J2.320 E14.72939
G3 X145.859 Y118.018 I-3.826 J0.890 E14.80763
G3 X144.851 Y119.692 I-3.790 J-1.142 E14.88294
G3 X143.155 Y120.680 I-2.769 J-2.803 E14.95860
G3 X141.186 Y120.729 I-1.080 J-3.813 E15.03452
G3 X139.632 Y119.962 I0.761 J-3.499 E15.10129
G1 X127.48 Y132.115 E15.75722
G3 X128.259 Y133.723 I-2.714 J2.307 E15.82612
G3 X128.197 Y135.642 I-3.837 J0.837 E15.90010
G3 X127.173 Y137.371 I-3.830 J-1.101 E15.97759
G3 X125.477 Y138.358 I-2.784 J-2.833 E16.05322
G3 X123.565 Y138.420 I-1.081 J-3.819 E16.12691
G3 X121.955 Y137.640 I0.721 J-3.540 E16.19588
G1 X118.354 Y141.241 E16.39024
G1 X118.196 Y141.344 E16.39744
G1 X118.009 Y141.372 E16.40465
G1 X117.788 Y141.311 E16.41341
G1 X89.434 Y112.956 E17.94384
G1 X89.331 Y112.798 E17.95103
G1 X89.303 Y112.611 E17.95825
G1 X89.364 Y112.39 E17.967
G1 X93.035 Y108.719 E18.16514
G3 X92.256 Y107.109 I2.758 J-2.328 E18.23410
G3 X92.318 Y105.192 I3.830 J-0.836 E18.30801
G3 X92.857 Y104.054 I3.338 J0.884 E18.35627
G0 F3240 X92.979 Y103.875
G0 X93.303 Y103.503
G0 F6000 X93.541 Y103.689
G1 F3600 X93.885 Y103.386 E18.37377
G3 X95.564 Y102.668 I2.216 J2.859 E18.44417
G3 X97.362 Y102.843 I0.556 J3.608 E18.51379
G3 X98.576 Y103.602 I-1.036 J3.007 E18.56884
G1 X111.119 Y91.059 E19.24584
G3 X110.361 Y89.841 I2.440 J-2.363 E19.30099
G3 X110.188 Y88.027 I3.461 J-1.245 E19.37123
G3 X110.916 Y86.352 I3.606 J0.572 E19.44163
G3 X112.334 Y85.252 I2.862 J2.226 E19.51080
G3 X114.136 Y84.963 I1.463 J3.361 E19.58114
G3 X115.856 Y85.586 I-0.338 J3.620 E19.65168
G1 X116.255 Y85.923 E19.67161
G1 X128.797 Y73.381 E20.34856
G3 X128.039 Y72.163 I2.421 J-2.351 E20.40371
G3 X127.866 Y70.350 I3.427 J-1.242 E20.47391
G3 X128.593 Y68.674 I3.616 J0.573 E20.54433
G3 X130.012 Y67.574 I2.886 J2.257 E20.61352
G3 X131.813 Y67.286 I1.458 J3.340 E20.68383
G3 X133.534 Y67.908 I-0.333 J3.612 E20.75439
G1 X133.933 Y68.245 E20.77432
G1 X137.729 Y64.449 E20.97921
G1 X137.827 Y64.405 E20.98331
G1 X137.941 Y64.449 E20.98798
G1 X166.225 Y92.734 E22.51463
G1 X166.269 Y92.832 E22.51873
G1 X166.225 Y92.946 E22.52339
G1 X162.429 Y96.741 E22.72825
G3 X163.186 Y97.958 I-2.422 J2.351 E22.78335
G3 X163.360 Y99.773 I-3.416 J1.243 E22.85364
G3 X162.644 Y101.434 I-3.621 J-0.576 E22.92334
G3 X161.214 Y102.549 I-2.892 J-2.235 E22.99323
G3 X159.413 Y102.837 I-1.463 J-3.370 E23.06354
G3 X157.691 Y102.213 I0.325 J-3.586 E23.13416
G1 X157.293 Y101.877 E23.15404
G1 X144.751 Y114.419 E23.831
G3 X145.508 Y115.636 I-2.402 J2.338 E23.88609
G3 X145.682 Y117.451 I-3.413 J1.243 E23.95639
G3 X144.955 Y119.126 I-3.601 J-0.568 E24.02677
G3 X143.536 Y120.226 I-2.868 J-2.234 E24.09597
G3 X141.735 Y120.515 I-1.462 J-3.355 E24.16628
G3 X140.013 Y119.891 I0.343 J-3.635 E24.23689
G1 X139.615 Y119.555 E24.25677
G1 X127.074 Y132.097 E24.9337
G3 X127.831 Y133.312 I-2.441 J2.364 E24.98872
G3 X128.005 Y135.128 I-3.450 J1.247 E25.05904
G3 X127.277 Y136.804 I-3.619 J-0.576 E25.12947
G3 X125.859 Y137.904 I-2.878 J-2.246 E25.19863
G3 X124.057 Y138.192 I-1.459 J-3.346 E25.26898
G3 X122.335 Y137.568 I0.329 J-3.596 E25.33961
G1 X121.939 Y137.232 E25.35943
G1 X118.142 Y141.029 E25.56437
G1 X118.044 Y141.073 E25.56847
G1 X117.93 Y141.029 E25.57313
G1 X89.646 Y112.744 E27.09979
G1 X89.602 Y112.646 E27.10389
G1 X89.646 Y112.532 E27.10855
G1 X93.441 Y108.737 E27.31338
G3 X92.677 Y107.501 I2.453 J-2.370 E27.36925
G3 X92.511 Y105.705 I3.445 J-1.224 E27.43876
G3 X93.094 Y104.240 I3.447 J0.523 E27.49943
G0 F3240 X93.227 Y104.044
G0 X93.541 Y103.689
G1 F600 E24.49943
G1 F600 Z1.3
G0 F6000 X102.231 Y116.987 Z1.3
G1 F600 Z0.3
G1 F600 E27.49943
G1 F3600 X113.687 Y128.443 E28.11777
G1 X153.639 Y88.491 E30.27417
G1 X142.183 Y77.035 E30.89251
G1 X102.733 Y116.485 E33.02181
G0 F3240 X102.231 Y116.987
G0 F6000 X101.807 Y116.987
G1 F3600 X113.687 Y128.867 E33.66304
G1 X154.063 Y88.491 E35.84233
G1 X142.183 Y76.611 E36.48355
G1 X102.309 Y116.485 E38.63574
G0 F3240 X101.807 Y116.987
G0 F6000 X101.383 Y116.987
G1 F3600 X113.687 Y129.291 E39.29985
G1 X154.487 Y88.491 E41.50202
G1 X142.183 Y76.187 E42.16613
G1 X101.885 Y116.485 E44.34121
G0 F3240 X101.383 Y116.987
;MESH:ribbon_casing.stl
G0 F6000 X101.118 Y116.934
;TYPE:WALL-OUTER
G1 F1125 X142.13 Y75.922 E47.2927
G1 F600 E44.2927
G1 F600 Z1.3
G0 F6000 X130.781 Y68.726 Z1.3
;TYPE:WALL-INNER
G1 F600 Z0.3
G1 F600 E47.2927
G1 F1127.8 X131.346 Y68.624 E47.32185
G1 F1130.7 X131.981 Y68.668 E47.35407
G1 F1136.4 X132.668 Y68.952 E47.39153
G1 F1206.4 X133.168 Y69.369 E47.42242
G1 F1384.6 X133.512 Y69.979 E47.45138
G1 F1500 X133.67 Y70.439 E47.46994
G3 X133.651 Y71.467 I-2.213 J0.473 E47.50944
G1 X133.411 Y72.064 E47.534
G3 X132.616 Y72.857 I-2.337 J-1.548 E47.57720
G1 X132.04 Y73.1 E47.60106
G1 X131.246 Y73.171 E47.63148
G1 X130.504 Y72.955 E47.66098
G1 F1384.6 X130.041 Y72.684 E47.68316
G1 F1193.6 X129.935 Y72.632 E47.68882
G1 F1125 X129.555 Y72.192 E47.71841
G3 X129.178 Y71.092 I2.109 J-1.338 E47.77680 F1148
G3 X129.380 Y69.963 I2.280 J-0.175 E47.83534 F1131
G3 X130.100 Y69.055 I2.309 J1.092 E47.89455 F1128
G1 X130.692 Y68.769 E47.92792
G0 F1350 X130.781 Y68.726
G0 F6000 X130.756 Y68.676
G0 X130.081 Y69.088
G0 X129.365 Y70.007
G0 X129.142 Y71.227
G0 X129.532 Y71.139
G1 F1500 X129.549 Y70.581 E47.94923
G3 X129.911 Y69.749 I1.896 J0.330 E47.98411
G1 X130.282 Y69.365 E48.00449
G1 X130.9 Y69.054 E48.03089
G1 X131.379 Y68.971 E48.04944
G1 X131.927 Y69.021 E48.07045
G1 X132.542 Y69.29 E48.09607
G1 X132.928 Y69.623 E48.11552
G3 X133.376 Y70.499 I-1.514 J1.327 E48.15336
G3 X133.355 Y71.416 I-1.924 J0.415 E48.18861
G1 X133.152 Y71.912 E48.20906
G3 X132.464 Y72.599 I-2.052 J-1.367 E48.24647
G1 X132.001 Y72.797 E48.26569
G3 X131.203 Y72.846 I-0.522 J-1.971 E48.29630
G1 X130.602 Y72.666 E48.32025
G3 X129.845 Y71.996 I0.887 J-1.765 E48.35915
G1 X129.751 Y71.81 E48.36711
G0 F1350 X129.635 Y71.578
G0 X129.532 Y71.139
G0 F6000 X129.777 Y71.086
;TYPE:WALL-OUTER
G3 X129.905 Y70.256 I1.682 J-0.165 E48.39941 F1500
G3 X130.427 Y69.576 I1.576 J0.669 E48.43239
G1 X130.985 Y69.289 E48.45634
G3 X131.856 Y69.262 I0.487 J1.649 E48.48988
G1 X132.422 Y69.511 E48.51348
G3 X132.995 Y70.166 I-0.949 J1.408 E48.54697
G3 X133.170 Y70.953 I-1.487 J0.744 E48.57797
G3 X132.937 Y71.785 I-1.737 J-0.038 E48.61121
G3 X132.357 Y72.369 I-1.452 J-0.862 E48.64286
G1 X131.909 Y72.56 E48.66145
G1 X131.308 Y72.613 E48.68448
G1 X130.706 Y72.439 E48.70839
G3 X130.060 Y71.868 I0.820 J-1.579 E48.74155
G1 X130.003 Y71.754 E48.74641
G0 F1350 X129.863 Y71.47
G0 X129.777 Y71.086
G0 F6000 X129.784 Y70.886
G0 X129.133 Y70.865
G0 X129.515 Y73.41
G0 X116.284 Y86.641
G0 X113.51 Y86.724
G0 X112.462 Y87.249
G0 X111.975 Y88.073
G0 X112.218 Y90.344
G0 X112.257 Y90.31
;TYPE:WALL-INNER
G1 F1122.2 X111.878 Y89.87 E48.77604
G1 F1127.8 X111.547 Y89.157 E48.81594
G3 X111.587 Y87.948 I2.476 J-0.523 E48.87779
G1 F1130.7 X111.808 Y87.421 E48.90672
G1 X112.196 Y86.93 E48.93841
G1 X112.832 Y86.499 E48.97731
G1 F1133.5 X113.505 Y86.303 E49.01271
G1 X114.283 Y86.344 E49.05206
G1 X114.858 Y86.558 E49.08305
G1 F1145 X115.302 Y86.863 E49.10998
G1 F1190.5 X115.438 Y87.03 E49.12034
G1 F1347.3 X115.794 Y87.563 E49.14757
G3 X116.049 Y88.670 I-2.129 J1.073 E49.19124 F1500
G1 X115.944 Y89.277 E49.21475
G3 X115.508 Y90.048 I-2.671 J-1.002 E49.24864
G1 X114.993 Y90.503 E49.27487
G1 X114.422 Y90.758 E49.29873
G3 X113.318 Y90.797 I-0.635 J-2.328 E49.34117
G1 X112.854 Y90.638 E49.35989
G1 F1282.1 X112.257 Y90.31 E49.39031
G0 F6000 X112.218 Y90.344
G0 X112.751 Y90.641
G0 X113.87 Y90.891
G0 X114.985 Y90.562
G0 X115.612 Y90.008
G0 X115.92 Y89.404
G0 X116.14 Y88.582
G0 X115.742 Y88.619
G1 F1500 X115.661 Y89.172 E49.41164
G1 X115.339 Y89.799 E49.43854
G1 X114.798 Y90.268 E49.46587
G1 X114.338 Y90.47 E49.48504
G3 X113.378 Y90.503 I-0.548 J-1.964 E49.52196
G3 X112.496 Y90.053 I0.450 J-1.972 E49.56004
G1 X112.173 Y89.684 E49.57875
G1 X111.897 Y89.053 E49.60504
G3 X111.912 Y88.081 I1.910 J-0.457 E49.64243
G3 X112.417 Y87.204 I1.925 J0.525 E49.68137
G1 X112.994 Y86.813 E49.70797
G1 X113.515 Y86.666 E49.72863
G1 X114.191 Y86.687 E49.75445
G3 X115.106 Y87.145 I-0.425 J1.992 E49.79382
G1 X115.521 Y87.684 E49.81978
G1 X115.608 Y87.927 E49.82963
G0 F1350 X115.698 Y88.177
G0 X115.742 Y88.619
G1 F600 E46.82963
G0 F6000 X116.14 Y88.582
G0 X115.994 Y89.261
G0 X115.686 Y89.865
G0 X115.119 Y90.524
G1 F600 E49.82963
G0 F6000 X114.69 Y90.038
;TYPE:WALL-OUTER
G1 F1500 X114.268 Y90.23 E49.84732
G3 X113.427 Y90.258 I-0.477 J-1.682 E49.87968
G1 X113.041 Y90.121 E49.89531
G1 F1505 X112.689 Y89.888 E49.91137
G1 X112.382 Y89.545 E49.92888
G1 F1500 X112.133 Y88.969 E49.95283
G3 X112.156 Y88.136 I1.685 J-0.370 E49.98487
G3 X112.588 Y87.394 I1.623 J0.448 E50.01791
G1 X113.116 Y87.036 E50.04226
G1 X113.539 Y86.915 E50.05905
G1 X114.151 Y86.934 E50.08242
G3 X114.917 Y87.318 I-0.369 J1.693 E50.11538
G1 X115.289 Y87.792 E50.13838
G1 X115.453 Y88.227 E50.15612
G3 X115.426 Y89.075 I-1.718 J0.370 E50.18874
G1 X115.137 Y89.644 E50.2131
G1 X115.1 Y89.676 E50.21496
G0 F1350 X114.69 Y90.038
G0 F6000 X114.508 Y90.12
G0 X114.749 Y90.677
G0 X111.919 Y90.237
G0 X112.003 Y91.135
G0 X98.83 Y104.566
G0 X98.621 Y104.555
;TYPE:WALL-INNER
G1 F1285.7 X98.099 Y104.442 E50.23875
G1 F1125 X97.618 Y104.034 E50.27084
G1 F1130.7 X97.018 Y103.732 E50.30485
G1 F1116.6 X96.362 Y103.593 E50.33923
G1 F1113.9 X96.04 Y103.576 E50.35581
G1 F1130.7 X95.295 Y103.706 E50.3941
G2 X94.449 Y104.152 I1.025 J2.970 E50.44326 F1117
G1 F1113.9 X94.21 Y104.371 E50.45993
G1 F1111.1 X93.83 Y104.841 E50.49107
G1 F1127.8 X93.547 Y105.452 E50.52525
G1 F1113.9 X93.454 Y105.864 E50.54696
G1 X93.429 Y106.529 E50.58116
G1 F1130.7 X93.555 Y107.119 E50.61171
G1 X93.874 Y107.776 E50.64869
G1 F1125 X94.282 Y108.258 E50.68082
G1 F1282.1 X94.386 Y108.626 E50.6979
G1 F1500 X94.386 Y108.863 E50.70694
G1 X94.231 Y109.215 E50.72162
G1 X90.814 Y112.638 E50.90622
G1 X118.037 Y139.861 E52.37557
G1 X121.45 Y136.451 E52.55971
G1 X121.669 Y136.325 E52.56935
G1 X121.849 Y136.282 E52.57642
G1 X122.08 Y136.293 E52.58524
